X:1826
T:Evelyne's
O:england
M:3/4
L:1/8
R:Waltz
K:G
Bc|d2 g2 f2|d3 Bcd|=f2 e2 c2|de dc Bc|d2 g2 f2|d3 Bcd|=f2 e2 c2|d4:||
||:Bc|d2 B2 G2|A3 GAB|c2 B2 G2|AB c2 Bc|d2 B2 G2|A3 GAB|c2 B2 A2|G4:||


